public/iconset/Iphone-x.svg

<?xml version="1.0" encoding="UTF-8"?>
<svg width="24px" height="24px" viewBox="0 0 24 24" version="1.1" xmlns="http://www.w3.org/2000/svg" xmlns:xlink="http://www.w3.org/1999/xlink">
    <!-- Generator: Sketch 48.1 (47250) - http://www.bohemiancoding.com/sketch -->
    <title>24x24</title>
    <desc>Created with Sketch.</desc>
    <defs></defs>
    <g id="Page-1" stroke="none" stroke-width="1" fill="none" fill-rule="evenodd">
        <g id="Iphone-x">
            <rect id="24x24" x="0" y="0" width="24" height="24"></rect>
            <path d="M16,5 L8,5 C7.44771525,5 7,5.44771525 7,6 L7,18 C7,18.5522847 7.44771525,19 8,19 L16,19 C16.5522847,19 17,18.5522847 17,18 L17,6 C17,5.44771525 16.5522847,5 16,5 Z M16,18 L8,18 L8,6 L9,6 C9,6.55228475 9.44771525,7 10,7 L14,7 C14.5522847,7 15,6.55228475 15,6 L16,6 L16,18 Z" id="Shape" fill="#000000" fill-rule="nonzero"></path>
        </g>
    </g>
</svg>

<svg id="target" xmlns="http://www.w3.org/2000/svg" viewBox="0 0 24 24"><title>Iphone-x</title><path d="M16,5H8A1,1,0,0,0,7,6V18a1,1,0,0,0,1,1h8a1,1,0,0,0,1-1V6A1,1,0,0,0,16,5Zm0,13H8V6H8V6H9a1,1,0,0,0,1,1h4a1,1,0,0,0,1-1h1Z"/></svg>
